packages/icons/src/view-vertical.svg

<svg width="15" height="15" viewBox="0 0 15 15" fill="none" xmlns="http://www.w3.org/2000/svg">
  <path
    fill-rule="evenodd"
    clip-rule="evenodd"
    d="M8 2H13.5C13.7761 2 14 2.22386 14 2.5V12.5C14 12.7761 13.7761 13 13.5 13H8V2ZM7 2H1.5C1.22386 2 1 2.22386 1 2.5V12.5C1 12.7761 1.22386 13 1.5 13H7V2ZM0 2.5C0 1.67157 0.671573 1 1.5 1H13.5C14.3284 1 15 1.67157 15 2.5V12.5C15 13.3284 14.3284 14 13.5 14H1.5C0.671573 14 0 13.3284 0 12.5V2.5Z"
    fill="currentColor"
  />
</svg>

<svg xmlns="http://www.w3.org/2000/svg" width="15" height="15" fill="none"><path fill="currentColor" fill-rule="evenodd" d="M8 2h5.5a.5.5 0 0 1 .5.5v10a.5.5 0 0 1-.5.5H8zM7 2H1.5a.5.5 0 0 0-.5.5v10a.5.5 0 0 0 .5.5H7zm-7 .5A1.5 1.5 0 0 1 1.5 1h12A1.5 1.5 0 0 1 15 2.5v10a1.5 1.5 0 0 1-1.5 1.5h-12A1.5 1.5 0 0 1 0 12.5z" clip-rule="evenodd"/></svg>
